X:776
T:The rambling pitchfork
T:Roland's return
R:Jig
O:Ireland
B:Kerr's First p39
B:Roche 1 n92
S:Kerr's First p39
Z:Transcription, chords:Mike Long
M:6/8
L:1/8
K:G
E/F/|\
"G"GFG BGG|dGG BGG|"Am"A2B cde|"C"gfe "D"dBA|\
"G"GFG BGG|dGG BGG|"Am"A2B cBA|"Em"BGE E2:|
|:(3B/^c/^d/|\
"Em"e2f gfe|"B"f^dB B^cd|"Em"e2f gfe|"G"bag "D"agf|\
"Em"e2f gfe|"B"f^dB BAG|"Am"A2B cBA|"Em"BGE E2:|
